dist/img/icons/work/github.svg

<svg width="33" height="33" viewBox="0 0 33 33" fill="none" xmlns="http://www.w3.org/2000/svg">
<path d="M16.5013 2.75C8.90447 2.75 2.75135 8.90312 2.75135 16.5C2.74969 19.3863 3.65692 22.1999 5.34433 24.5416C7.03175 26.8833 9.41368 28.6342 12.1522 29.546C12.8397 29.6656 13.0982 29.2531 13.0982 28.8915C13.0982 28.5656 13.0803 27.4835 13.0803 26.3312C9.62634 26.9679 8.73259 25.4898 8.45759 24.7156C8.30222 24.3196 7.6326 23.1 7.04822 22.7728C6.56697 22.5156 5.87947 21.879 7.03035 21.8625C8.11385 21.8446 8.88659 22.8594 9.14509 23.2719C10.3826 25.3509 12.3585 24.7665 13.1491 24.4062C13.2701 23.5125 13.6303 22.9116 14.0263 22.5679C10.967 22.2241 7.7701 21.0375 7.7701 15.7781C7.7701 14.2821 8.30222 13.046 9.17947 12.0821C9.04197 11.7384 8.56072 10.329 9.31697 8.43838C9.31697 8.43838 10.4678 8.07813 13.0982 9.84913C14.2176 9.53846 15.3741 9.3821 16.5357 9.38437C17.7045 9.38437 18.8732 9.53838 19.9732 9.84775C22.6036 8.06025 23.7545 8.43975 23.7545 8.43975C24.5107 10.3304 24.0295 11.7398 23.892 12.0835C24.7678 13.046 25.3013 14.2656 25.3013 15.7781C25.3013 21.0554 22.088 22.2241 19.0272 22.5679C19.5263 22.9969 19.9567 23.8219 19.9567 25.1116C19.9567 26.95 19.9388 28.4281 19.9388 28.8929C19.9388 29.2531 20.1973 29.6821 20.8848 29.5446C23.614 28.6229 25.9854 26.8685 27.6654 24.5285C29.3454 22.1885 30.2493 19.3806 30.25 16.5C30.25 8.90312 24.0968 2.75 16.5 2.75H16.5013Z" fill="black"/>
</svg>

<svg width="33" height="33" fill="none" xmlns="http://www.w3.org/2000/svg"><path d="M16.501 2.75c-7.597 0-13.75 6.153-13.75 13.75a13.742 13.742 0 0 0 9.401 13.046c.688.12.946-.293.946-.654 0-.326-.018-1.409-.018-2.56-3.454.636-4.347-.842-4.622-1.616-.156-.396-.825-1.616-1.41-1.943-.481-.257-1.169-.894-.018-.91 1.084-.018 1.857.996 2.115 1.409 1.238 2.079 3.213 1.495 4.004 1.134.121-.893.481-1.494.877-1.838-3.059-.344-6.256-1.53-6.256-6.79 0-1.496.532-2.732 1.41-3.696-.138-.344-.62-1.753.137-3.644 0 0 1.15-.36 3.781 1.411a12.76 12.76 0 0 1 3.438-.465c1.168 0 2.337.154 3.437.464 2.63-1.788 3.782-1.408 3.782-1.408.756 1.89.274 3.3.137 3.644.876.962 1.41 2.182 1.41 3.694 0 5.277-3.214 6.446-6.275 6.79.5.429.93 1.254.93 2.544 0 1.838-.018 3.316-.018 3.78 0 .361.258.79.946.653A13.772 13.772 0 0 0 30.25 16.5c0-7.597-6.153-13.75-13.75-13.75h.001Z" fill="#000"/></svg>
